X:1
T:Title
%%score { ( 1 3 ) | ( 2 4 5 ) }
L:1/8
Q:1/4=100
M:4/4
K:Eb
V:1 treble nm="Grand Piano"
V:3 treble 
V:2 bass 
V:4 bass 
V:5 bass 
V:1
 E3 F G2 E2 | A2 A2 G4 | c2 c2 B2 G2 | [FA]2 [EG]2 z2 A,2 | E3 F G2 E2 | A2 A2 G4 | %6
w: C.~Austin~Miles * * *||||||
 [Ec]2 [Ec]2 B2 z F | [B,EG]2 [A,DF]2 [G,E]4 | [DF]2 [DF]>[EG] [FA]2 [DF]2 | [EG]2 [FA]2 [GB]4 | %10
w: ||||
 =A2 A>A B2 c2 | B4 c2 d2 | [EGe]2 [Ge]>[Ge] [Bd]2 .[CAc]2 | [EGB]2 G2 z2 F2 | %14
w: ||||
 [EG]2 [EG]>[EG] [DG]2 [DF]2 | E6 z2 |] %16
w: ||
V:2
 [E,G,]3 [E,A,E] [E,B,E]2 [E,G,]2 | [E,CE]2 [E,CE]2 [E,B,E]4 | [A,E]2 [A,E]2 [G,B,E]2 [E,B,E]2 | %3
 [D,B,]2 [E,B,]2 B,2 z2 | [E,G,]3 [E,A,E] [E,B,E]2 [E,G,]2 | [E,CE]2 [E,CE]2 [E,B,E]4 | %6
 [A,,A,]2 [A,,A,]2 [B,,G,]2 [C,G,]2 | B,,2 B,,2 E,4 | [B,,B,]2 [B,,B,]>[B,,B,] [B,,B,]2 [B,,B,]2 | %9
 [E,B,]2 [E,B,]2 [E,E]4 | [F,CE]2 [F,CE]>[F,CE][K:treble] [F,DF]2 [F,EF]2 | z4 A4 | %12
 E,2 [E,B,]>[E,B,] [E,B,]2 z D | E,2 [E,B,E]2 [C,=A,]4 | %14
 [B,,B,]2 [B,,B,]>[B,,B,] [B,,B,]2 [B,,A,]2 | [G,B,]2 A,2 G,2 z2 |] %16
V:3
 x8 | x8 | x8 | z4 [DF]4 | x8 | x8 | z4 z2 E2 | x8 | x8 | x8 | x8 | x8 | x8 | z4 E4 | x8 | %15
 z2 C2 B,2 z2 |] %16
V:4
 x8 | x8 | x8 | z4 B,,4 | x8 | x8 | x8 | x8 | x8 | x8 | x4[K:treble] x4 | [DF]4 E2 F2 | z4 z2 E,2 | %13
 x8 | x8 | E,6 z2 |] %16
V:5
 x8 | x8 | x8 | x8 | x8 | x8 | x8 | x8 | x8 | x8 | x4[K:treble] x4 | B,8 | x8 | x8 | x8 | x8 |] %16

